!!!!SEGMENT: pl-wtm--a-24-216_kagan-jakub--milosc-stara-jak-swiat-jak-wiele-rzeczy.krn
!!!cenid: 19xx:14
!!!COM: Kagan, Jakub
!!!COM-rismID: pe50046719
!!!CDT: 1896/02/07-1942
!!!CNT: Polish
!!!OTL: Miłość stara jak świat/Jak wiele rzeczy
!!!PDT: 1934
!!!AGN: Secular
!!!YEC: Copyright 2022 Narodowy Instytut Fryderyka Chopina (https://polishscores.org)
!!!YEM: License CC-BY-4.0 (https://creativecommons.org/licenses/by/4.0)
!!!SMS-siglum: PL-Wtm
!!!SMS-shelfmark: A.24.216
!!!SMS-variant:
!!!SMS-altvar:
!!!SMS-shelfwork: W
!!!NIFC-rismSourceID: 1001218247
!!!NIFC-rismChildID: 1001218247
!!!NIFC-islandoraID: pl-wtm:95158
!!!URL-pdf-islandora: https://repozytorium.nifc.pl/islandora/object/pl-wtm%3A95158/datastream/PDF/view
!!!URL-scan: https://polish.musicsources.pl/pl/lokalizacje/galeria/druki-muzyczne/19932/2 @EN{Scan on Polish Music Sources Website} @PL{Skany w portalu Dziedzictwo Muzyki Polskiej w otwartym dostępie}
!!!IIIF:
!!!ONB-nifc:
!!!AIN: 2 piano 1 vox
!!!key: c
**kern	**kern	**dynam	**kern	**text	**text
*part3	*part2	*part2	*part1	*part1	*part1
*staff3	*staff2	*	*staff1	*staff1	*staff1
*I"PIANO	*I"PIANO	*	*I"CANTO	*	*
*I'[pf]	*I'[pf]	*	*I'[V]	*	*
*ICklav	*ICklav	*	*ICvox	*	*
*Ipiano	*Ipiano	*	*Ivox	*	*
*>[A,A1,A,A2]	*>[A,A1,A,A2]	*>[A,A1,A,A2]	*>[A,A1,A,A2]	*>[A,A1,A,A2]	*>[A,A1,A,A2]
*>A	*>A	*>A	*>A	*>A	*>A
*clefF4	*clefG2	*	*clefG2	*	*
*k[b-e-a-]	*k[b-e-a-]	*	*k[b-e-a-]	*	*
*c:	*c:	*	*c:	*	*
*M2/4	*M2/4	*	*M2/4	*	*
=1	=1	=1	=1	=1	=1
8FF\ 8C 8A-	8.cc\L	fp	2r	.	.
8r	.	.	.	.	.
.	16bn\Jk	.	.	.	.
8r	16dd\LL	.	.	.	.
.	16cc\JJ	.	.	.	.
8FF\ 8C 8A-	32dd\LLL	.	.	.	.
.	32cc\	.	.	.	.
.	32a-\	.	.	.	.
.	32f\JJJ	.	.	.	.
=2	=2	=2	=2	=2	=2
8CC/ 8GG 8E-	8.g/L	.	2r	.	.
8r	.	.	.	.	.
.	16f#X/Jk	.	.	.	.
8r	16a-/LL	.	.	.	.
.	16g/JJ	.	.	.	.
8CC/ 8GG 8E-	32a-/LLL	.	.	.	.
.	32g/	.	.	.	.
.	32e-/	.	.	.	.
.	32c/JJJ	.	.	.	.
=3	=3	=3	=3	=3	=3
8GG\ 8D 8Bn	8.d/L	.	2r	.	.
8r	.	.	.	.	.
.	16c#X/Jk	.	.	.	.
8r	32d/LLL	.	.	.	.
.	32c#/	.	.	.	.
.	32d/	.	.	.	.
.	32e-/JJJ	.	.	.	.
8GG\ 8D 8B	32f/LLL	.	.	.	.
.	32en/	.	.	.	.
.	32f/	.	.	.	.
.	32g/JJJ	.	.	.	.
=4	=4	=4	=4	=4	=4
8CC/ 8GG 8E-	16e-/LL	.	2r	.	.
.	16d/JJ	.	.	.	.
8r	32e-/LLL	.	.	.	.
.	32d/	.	.	.	.
.	32e-/	.	.	.	.
.	32f/JJJ	.	.	.	.
16r	4g/	.	.	.	.
16GG/LL	.	.	.	.	.
16AA-/	.	.	.	.	.
16GG/JJ	.	.	.	.	.
=5	=5	=5	=5	=5	=5
8FF\ 8C 8A-	8.cc\L	pp	2r	.	.
8r	.	.	.	.	.
.	16bn\Jk	.	.	.	.
4r	16dd\LL	.	.	.	.
.	16cc\JJ	.	.	.	.
.	32dd\LLL	.	.	.	.
.	32cc\	.	.	.	.
.	32a-\	.	.	.	.
.	32f\JJJ	.	.	.	.
!!LO:LB:g=original	!	!	!	!	!
=6	=6	=6	=6	=6	=6
8CC/ 8GG 8E-	8.g/L	.	2r	.	.
8r	.	.	.	.	.
.	16f#X/Jk	.	.	.	.
4r	16a-/LL	.	.	.	.
.	16g/JJ	.	.	.	.
.	32a-/LLL	.	.	.	.
.	32g/	.	.	.	.
.	32e-/	.	.	.	.
.	32c/JJJ	.	.	.	.
=7	=7	=7	=7	=7	=7
8GG\ 8D 8Bn	8.d/L	.	2r	.	.
8r	.	.	.	.	.
.	16c#X/Jk	.	.	.	.
4r	32d/LLL	.	.	.	.
.	32c#/	.	.	.	.
.	32d/	.	.	.	.
.	32e-/JJJ	.	.	.	.
.	32f/LLL	.	.	.	.
.	32en/	.	.	.	.
.	32f/	.	.	.	.
.	32g/JJJ	.	.	.	.
=8	=8	=8	=8	=8	=8
8C\L 8E- 8G	8c/L	.	2r	.	.
!LO:N:vis=8	!	!	!	!	!
(<(>(>8GG^\	(<8Bn^>/ (>8d (>8g	.	.	.	.
!LO:N:vis=8	!LO:N:vis=8	!	!	!	!
16C\Jk) 16E-) 16G)	16c/Jk)))	.	.	.	.
16r	16r	.	.	.	.
8r	8r	.	.	.	.
=9!|:	=9!|:	=9!|:	=9!|:	=9!|:	=9!|:
8CC/L 8C	16r	.	16r	.	.
.	16G/LL	.	16G/	1. Jak	2. I
8GG/J 8C 8E-	16c/	.	16c/	wie-	w tej
.	16d/JJ	.	16d/	-le	pio-
8GG/L 8C 8E-	16e-/LL	.	16e-/	rze-	-sen-
.	16Bn/	.	16Bn/	-czy,	-ce
8GGG/J 8GG	16c/	.	16c/	patrz	śpie-
.	16e-/JJ	.	16e-/	i	-wam
=10	=10	=10	=10	=10	=10
8CC/L 8C	[2c/ [2e- [2g	.	[2g/	licz,	też
8GG/J 8C 8E-	.	.	.	.	.
16GG/LL 16C 16E-	.	.	.	.	.
16EE-/	.	.	.	.	.
16DD/	.	.	.	.	.
16DD-X/JJ	.	.	.	.	.
!!LO:LB:g=original	!	!	!	!	!
=11	=11	=11	=11	=11	=11
8CC/L 8C	16c/LL] 16e-] 16g]	.	16g/]	.	.
.	16G/	.	16G/	Tak	Na
8GG/J 8C 8E-	16c/	.	16c/	mod-	ten
.	16d/JJ	.	16d/	-nych	tak
8GG/L 8C 8E-	16e-/LL	.	16e-/	da-	sta-
.	16Bn/	.	16Bn/	-wniej,	-ry
8GGG/J 8GG	16c/	.	16c/	przesz-	te-
.	16e-/JJ	.	16e-/	-ło	-mat
=12	=12	=12	=12	=12	=12
8FFF/L 8FF	[2c/ [2d [2f [2a-	.	[2a-/	już,	znów,
8AA-/J 8C 8D 8F	.	.	.	.	.
16AA-/LL 16C 16D 16F	.	.	.	.	.
16FF/	.	.	.	.	.
16EEn/	.	.	.	.	.
16EE-X/JJ	.	.	.	.	.
=13	=13	=13	=13	=13	=13
8DD/L	16c/LL] 16d] 16f] 16a-]	.	16a-/]	.	.
.	16f/	.	16f/	Tak	Bo
8C/J 8D 8F	16f/	.	16f/	sa-	wiem,
.	16g/JJ	.	16g/	-mo	że
8C/L 8D 8F	16a-/LL	.	16a-/	fox-	je-
.	16f/	.	16f/	-trot,	-dnak
16DD/L	16g/	.	16g/	al-	te-
16CC/JJ	16a-/JJ	.	16a-/	-bo	-go
=14	=14	=14	=14	=14	=14
8BBBn/L	[2Bn/ [2d [2g	.	[2g/	brydż	chcesz,
8BBn/J 8D 8F	.	.	.	.	.
8BB/L 8D 8F	.	.	.	.	.
8GGG/J	.	.	.	.	.
=15	=15	=15	=15	=15	=15
8BBBn/L	16B/LL] 16d] 16g]	.	16g/]	.	.
.	16g/	.	16g/	Pójść	Choć
8F/J 8G 8Bn	16f#X/	.	16f#X/	mo-	cza-
.	16g/JJ	.	16g/	-gą	-sem
8F/L 8G 8B	16fn/LL	.	16fn/	ju-	mó-
.	16g/	.	16g/	-tro	-wisz
8GGG/J	16f/	.	16f/	w za-	co
.	16d/JJ	.	16d/	-po-	in-
!!LO:LB:g=original	!	!	!	!	!
=16	=16	=16	=16	=16	=16
*	*^	*	*	*	*
4CC/ 4C	8e-/L	8r	.	8e-/	-mnie-	-ne-
.	[8c/J	8G\	.	[8c/	-nie.	-go.
4CC/ 4C	[4c/]	16r	.	4c/_	.	.
.	.	8A-\L 8c	.	.	.	.
.	.	16A-\Jk 16c	.	.	.	.
*	*v	*v	*	*	*	*
=17	=17	=17	=17	=17	=17
8CC/L 8C	16c/LL]	.	16c/]	.	.
.	16G/	.	16G/	Jest	Ba-
8GG/J 8C 8E-	16c/	.	16c/	je-	-nal-
.	16d/JJ	.	16d/	-dna	-ne?
8GG/L 8C 8E-	16e-/LL	.	16e-/	wiel-	mo-
.	16Bn/	.	16Bn/	-ka,	-że,
8GGG/J 8GG	16c/	.	16c/	pię-	a-
.	16e-/JJ	.	16e-/	-kna	-le
=18	=18	=18	=18	=18	=18
8CC/L 8C	[2c/ [2e- [2g	.	[2g/	rzecz,	cóż!
8GG/J 8C 8E-	.	.	.	.	.
16GG/LL 16C 16E-	.	.	.	.	.
16EE-/	.	.	.	.	.
16DD/	.	.	.	.	.
16DD-X/JJ	.	.	.	.	.
=19	=19	=19	=19	=19	=19
8CC/L 8C	16c/LL] 16e-] 16g]	.	16g/]	.	.
.	16g/	.	16g/	Któ-	Gdy
8En/J 8G 8B-	16f#X/	.	16f#X/	-ra	u-
.	16g/JJ	.	16g/	gdy	-miesz,
8E/L 8G 8B-	16cc\LL	.	16cc\	się-	rzecz
.	16bn\	.	16bn\	-gniesz	pię-
8CC/J 8C	16b-X\	.	16b-X\	my-	-kniej-
.	16an\JJ	.	16an/	-ślą	-szką
=20	=20	=20	=20	=20	=20
8FFF/L 8FF	[2c/ [2f [2a-X	.	[2a-X/	wstecz,	stwórz,
8C/J 8F	.	.	.	.	.
8C/L 8F	.	.	.	.	.
8CC/J 8C	.	.	.	.	.
!!LO:PB:g=original	!	!	!	!	!
=21	=21	=21	=21	=21	=21
8FFF/L 8FF	8c/L] 8f] 8a-]	.	8a-/]	.	.
8C/J 8F	16f/L	.	16f/	Za-	Lecz
.	16g/JJ	.	16g/	-wsze	ja
8C/L 8F	16a-/LL	.	16a-/	żar	je-
.	16f/	.	16f/	są-	-dną
16EE-/L	16g/	.	16g/	-czy-	tyl-
16DD/JJ	16a-/JJ	.	16a-/	-ła	-ko
=22	=22	=22	=22	=22	=22
8CC/L 8C	8.g/L	.	8.g/	nam	praw-
8E-/J 8G	.	.	.	.	.
.	16e-/Jk	.	16e-/	do	-dę
8E-/L 8G	4c/	.	4c/	serc,	znam,
8CC/J 8C	.	.	.	.	.
=23	=23	=23	=23	=23	=23
8GGG/L 8GG	8.f/L	.	8.f/	Moc-	Przy
8BBn/J 8D 8F	.	.	.	.	.
.	16d/Jk	.	16d/	-na	niej
8BB/L 8D 8F	4Bn/	.	4Bn/	jak	więc
8GGG/J 8GG	.	.	.	.	.
=24	=24	=24	=24	=24	=24
*	*^	*	*	*	*
4CC/ 4C	[<2c/	16r	.	[2c/	śmierć.	trwam.
.	.	8en\L 8g	.	.	.	.
.	.	16e\Jk 16g	.	.	.	.
4GGG/ 4GG	.	8f\L 8an	.	.	.	.
.	.	16e\L 16g	.	.	.	.
.	.	16d#X\JJ 16f#X	.	.	.	.
=25	=25	=25	=25	=25	=25	=25
4CC/ 4C	8c/L]	4e-\ 4g	.	8c/]	.	.
.	8e-/ 8g	.	.	8g/	1.2. To	.
4r	8e-/ 8g	4r	.	8g/	mi-	.
.	8d/J 8f	.	.	8f/	-łość	.
*	*v	*v	*	*	*	*
!!LO:LB:g=original	!	!	!	!	!
*kcancel	*kcancel	*kcancel	*	*	*
=26||	=26||	=26||	=26||	=26||	=26||
*k[]	*k[]	*	*k[]	*	*
!LO:TX:t=[segno]	!LO:TX:t=[segno]	!	!LO:TX:t=[segno]	!	!
8CC\L 8C	16c/KL 16e	.	16e/	sta-	.
.	8e/ 8g	.	8g/	-ra	.
8E\ 8G 8c	.	.	.	.	.
.	16g/Jk 16cc	.	16cc\	jak	.
8E\ 8G 8c	[4cc\ [4ee	.	[4ee\	świat,	.
8GGG\J 8GG	.	.	.	.	.
=27	=27	=27	=27	=27	=27
8CC\L 8C	8cc\L] 8ee]	.	8ee\]	.	.
8E\ 8G 8c	8g\ 8ee	.	8ee\	Co	.
8E\ 8G 8c	8g\ 8ee	.	8ee\	wciąż	.
8E\J 8G#X 8c	8g#X\J 8ee	.	8ee\	od-	.
=28	=28	=28	=28	=28	=28
8FF\L	8.a\L 8.ee	.	8.ee\	-ży-	.
8D\J 8F 8A	.	.	.	.	.
.	16a\Jk 16dd	.	16dd\	-wa	.
16D\LL 16F 16A	[4f/ [4a	.	[4a/	w nas	.
16FF\	.	.	.	.	.
16EE\	.	.	.	.	.
16EE-X\JJ	.	.	.	.	.
=29	=29	=29	=29	=29	=29
8DD/	8f/L] 8a]	.	8a/]	.	.
8r	8d/ 8f	.	8f/	I	.
4r	8d/ 8f	.	8f/	mi-	.
.	8c/J 8e	.	8e/	-nie	.
=30	=30	=30	=30	=30	=30
8GGG\L 8GG	16B/KL 16d	.	16d/	znów	.
.	8d/ 8f	.	8f/	wie-	.
8D\ 8F 8G	.	.	.	.	.
.	16g/Jk 16b	.	16b\	-le	.
8D\ 8F 8G	[4b\ [4dd	.	[4dd\	lat,	.
8GGG\J 8GG	.	.	.	.	.
=31	=31	=31	=31	=31	=31
8BBB\L 8BB	8b\L] 8dd]	.	8dd\]	.	.
8D\ 8F 8G	8f\ 8dd	.	8dd\	Lecz	.
8D\ 8F 8G	8f\ 8dd	.	8dd\	nie	.
8GGG\J 8GG	8g\J 8ee	.	8ee\	za-	.
!!LO:LB:g=original	!	!	!	!	!
=32	=32	=32	=32	=32	=32
8CC\L 8C	16f/KL 16dd	.	16dd\	-bi-	.
.	8e/ 8cc	.	8cc\	-je	.
8E\J 8G 8c	.	.	.	.	.
.	16f/Jk 16a	.	16a/	jej	.
16E\LL 16G 16c	[4e/ [4g	.	[4g/	czas.	.
16GG\	.	.	.	.	.
16FF#X\	.	.	.	.	.
16FFn\JJ	.	.	.	.	.
=33	=33	=33	=33	=33	=33
8EE\L	8e/L] 8g]	.	8g/]	.	.
8E\ 8G 8c	8e/ 8g	.	8g/	Bo	.
8E\ 8G 8c	8e/ 8g	.	8g/	jed-	.
8GG\J	8d/J 8f	.	8f/	-ną	.
=34	=34	=34	=34	=34	=34
8CC\L 8C	16c/KL 16e	.	16e/	praw-	.
.	8e/ 8g	.	8g/	-dę	.
8E\ 8G 8c	.	.	.	.	.
.	16g/Jk 16cc	.	16cc\	świat	.
8E\ 8G 8c	[4cc\ [4ee	.	[4ee\	zna	.
8GG\J	.	.	.	.	.
=35	=35	=35	=35	=35	=35
8GG#X\L	8cc\L] 8ee]	.	8ee\]	.	.
8G#X\ 8B 8d	8b\ 8dd 8ee	.	8ee\	I	.
8G#\ 8B 8d	8b\ 8dd 8ff	.	8ff\	tę	.
8EE\J	8b\J 8dd 8ee	.	8ee\	je-	.
=36	=36	=36	=36	=36	=36
8AA\L	4e/ 4a 4dd	.	4dd\	-dy-	.
8E\ 8A 8c	.	.	.	.	.
8E\ 8A 8c	4e/ [4a [4cc	.	[4cc\	-ną,	.
8AAA\J 8AA	.	.	.	.	.
=37	=37	=37	=37	=37	=37
8AAA-X\L 8AA-X	8a\L] 8cc]	.	8cc\]	.	.
8E-X\ 8c-X	8e-X\ 8a-X 8cc	.	8cc\	Że	.
8E-\ 8c-	8e-\ 8a- 8dd	.	8dd\	za-	.
8AAA-\J 8AA-	8e-\J 8a- 8cc	.	8cc\	-wsze	.
!!LO:LB:g=original	!	!	!	!	!
=38	=38	=38	=38	=38	=38
8CC\L 8C	16e/KL 16g	.	16g/	ko-	.
.	8c/ 8e	.	8e/	-chać	.
8E\ 8G	.	.	.	.	.
.	16d/Jk 16f	.	16f/	się	.
8E\ 8G 8c	[4e/ [4g	.	[4g/	ma	.
8GG\J	.	.	.	.	.
=39	=39	=39	=39	=39	=39
8GGG\L 8GG	8e/L] 8g]	.	8g/]	.	.
8F\ 8G	16B/L 16d	.	16d/	Chło-	.
.	16c/JJ 16e	.	16e/	-piec	.
8BB\ 8G	16d/KL 16f	.	16f/	ze	.
.	8B/ 8g	.	8g/	swą	.
8GGG\J 8GG	.	.	.	.	.
.	16B/Jk 16e	.	16e/	dziew-	.
=40	=40	=40	=40	=40	=40
*>A1	*>A1	*>A1	*>A1	*>A1	*>A1
!	!LO:TUP:b	!	!	!	!
8CC\L 8C	24d/LL	.	8d/	-czy-	.
.	24e/	.	.	.	.
.	24d/J	.	.	.	.
8E\J 8G	[8c/J	.	[8c/	-ną	.
16E\LL 16G	4c/_	.	4c/_	.	.
16GG\	.	.	.	.	.
16FF#X\	.	.	.	.	.
16FFn\JJ	.	.	.	.	.
=41	=41	=41	=41	=41	=41
8EE\L	8c/L]	.	8c/]	.	.
((8GG\ 8D [8G	((8B/ 8f [8g	.	8r	.	.
!	!LO:TX:b:i:t=Fine.	!	!	!	!
8C\J)) 8G]	8e/J)) 8g] 8cc	.	4r	.	.
8r	8r	.	.	.	.
=42:|!	=42:|!	=42:|!	=42:|!	=42:|!	=42:|!
*>A2	*>A2	*>A2	*>A2	*>A2	*>A2
!	!LO:TUP:b	!	!	!	!
8CC\L 8C	24d/LL	.	8d/	czy-	.
.	24e/	.	.	.	.
.	24d/J	.	.	.	.
8E\ 8G	8c/J	.	[8c/	-ną	.
8E\ 8G	4c/	.	4c/]	.	.
((8GG\J	.	.	.	.	.
=43	=43	=43	=43	=43	=43
4CC/)) 4C	8r	.	8r	.	.
.	8e/L 8g	.	8g/	To	.
4r	8e/ 8g	.	8g/	mi-	.
.	8d/J 8f	.	8f/	-łość	.
!LO:TX:b:rj:t=[segno]	!LO:TX:rj:t=[segno]	!	!LO:TX:rj:t=[segno]	!	!
==	==	==	==	==	==
*-	*-	*-	*-	*-	*-
!!!system-decoration: s1{(s2,s3)}
!!!RDF**kern: > = above
!!!RDF**kern: < = below
!!!ENC: Anastazja Marusiak
!!!END: 2023-08-23
!!!ENC: Jan Barakat
!!!END: 2023-09-17
